X:470
T:Loch Ericht Side
R:Slow Strathspey
B:The Athole Collection
M:C
L:1/8
Q:1/4=140
K:C
G/F/|E<G GA/B/ c>dc>B|A>GAB/c/ d/e/f/e/ d>D|E<G GA/B/ c>de>d|
c/B/A/G/ c>E D2C:|
||g|e/f/g c>g a/g/f/e/ g>e|a>ada b/a/g/f/ a>g|e/f/g c>g a/g/f/e/ g>c|
G>ce>c d2 c>g|e/f/g c>g a/g/f/e/ g>e|f>ad>a b/a/g/f/ a>g|
e/f/g d>e =c>de>d|c/B/A/G/ c>E D2C||

